X: 1
P: Holmes's Fancy
C: Northumbrian Pipers tunebook (via Burt Feintuch)
R: march
C: arr. by T. Traub, 2-3-2004
M: C|
L: 1/8
K: G
B|"G"GB/c/ dB "C"ec"G"dB|"G"GB/c/ dB "C"cA "D"(3cde|"G"GB/c/ dB "C"ec"G"dB|"C"(3cde "D"dc "G"BGG :|
|:g|"D"fd"C"ec "G"dB Gg|"D"fd"C"ec "G"d2 "C"(3efg|"G"GgAg Bgcg|"D"d>edB "G"G2 G :|
